public/assets/icons/statistik.svg

<svg width="20" height="20" viewBox="0 0 20 20" fill="none" xmlns="http://www.w3.org/2000/svg">
<path d="M2.5 18.334H17.5" stroke="white" stroke-width="1.5" stroke-linecap="round" stroke-linejoin="round"/>
<path d="M4.66665 6.98242H3.33333C2.875 6.98242 2.5 7.35742 2.5 7.81576V14.9991C2.5 15.4574 2.875 15.8324 3.33333 15.8324H4.66665C5.12498 15.8324 5.49998 15.4574 5.49998 14.9991V7.81576C5.49998 7.35742 5.12498 6.98242 4.66665 6.98242Z" stroke="white" stroke-width="1.5" stroke-linecap="round" stroke-linejoin="round"/>
<path d="M10.6666 4.32422H9.33333C8.875 4.32422 8.5 4.69922 8.5 5.15755V14.9992C8.5 15.4575 8.875 15.8325 9.33333 15.8325H10.6666C11.125 15.8325 11.5 15.4575 11.5 14.9992V5.15755C11.5 4.69922 11.125 4.32422 10.6666 4.32422Z" stroke="white" stroke-width="1.5" stroke-linecap="round" stroke-linejoin="round"/>
<path d="M16.6666 1.66602H15.3333C14.875 1.66602 14.5 2.04102 14.5 2.49935V14.9993C14.5 15.4577 14.875 15.8327 15.3333 15.8327H16.6666C17.125 15.8327 17.5 15.4577 17.5 14.9993V2.49935C17.5 2.04102 17.125 1.66602 16.6666 1.66602Z" stroke="white" stroke-width="1.5" stroke-linecap="round" stroke-linejoin="round"/>
</svg>

<svg width="20" height="20" fill="none" viewBox="0 0 20 20" xmlns="http://www.w3.org/2000/svg">
    <path
        d="M2.5 18.334h15M4.667 6.982H3.333a.836.836 0 0 0-.833.834v7.183c0 .458.375.833.833.833h1.334A.836.836 0 0 0 5.5 15V7.816a.836.836 0 0 0-.833-.834zM10.667 4.324H9.333a.836.836 0 0 0-.833.834v9.841c0 .458.375.833.833.833h1.334A.836.836 0 0 0 11.5 15V5.158a.836.836 0 0 0-.833-.834zM16.667 1.666h-1.334a.836.836 0 0 0-.833.833V15c0 .459.375.834.833.834h1.334a.836.836 0 0 0 .833-.834V2.5a.836.836 0 0 0-.833-.833z"
        stroke="#fff" stroke-width="1.5" stroke-linecap="round" stroke-linejoin="round" />
</svg>
